build/redact/IndentIncreaseOutline.svg

<svg xmlns="http://www.w3.org/2000/svg" fill="none" viewBox="0 0 24 24" focusable="false"><path d="M0 0H24V24H0z"/><path fill="#74767B" fill-rule="evenodd" d="M4 6.15C4 5.79102 4.29069 5.5 4.64927 5.5L19.3329 5.5C19.6914 5.5 19.9821 5.79102 19.9821 6.15C19.9821 6.50899 19.6914 6.8 19.3329 6.8L4.64927 6.8C4.29069 6.8 4 6.50899 4 6.15ZM4 13.95C4 13.591 4.29069 13.3 4.64927 13.3L11.3872 13.3C11.7458 13.3 12.0365 13.591 12.0365 13.95C12.0365 14.309 11.7458 14.6 11.3872 14.6L4.64927 14.6C4.29069 14.6 4 14.309 4 13.95ZM4.64927 9.39999C4.29069 9.39999 4 9.69101 4 10.05C4 10.409 4.29069 10.7 4.64927 10.7L11.3872 10.7C11.7458 10.7 12.0365 10.409 12.0365 10.05C12.0365 9.69101 11.7458 9.39999 11.3872 9.39999L4.64927 9.39999ZM4 17.85C4 17.491 4.29069 17.2 4.64927 17.2L19.3329 17.2C19.6914 17.2 19.9821 17.491 19.9821 17.85C19.9821 18.209 19.6914 18.5 19.3329 18.5L4.64927 18.5C4.29069 18.5 4 18.209 4 17.85ZM19.793 12.4488C19.9272 12.3237 20.0024 12.1477 19.9999 11.9642C19.9975 11.7807 19.9177 11.6068 19.7802 11.4854L17.5584 9.52375C17.2895 9.2863 16.8792 9.31206 16.642 9.5813C16.4048 9.85053 16.4305 10.2613 16.6995 10.4987L18.3838 11.9859L16.6865 13.5671C16.424 13.8116 16.4093 14.2229 16.6536 14.4857C16.8978 14.7485 17.3087 14.7633 17.5712 14.5188L19.793 12.4488Z"/></svg>

<svg xmlns="http://www.w3.org/2000/svg" fill="none" viewBox="0 0 24 24" focusable="false"><path fill="#74767B" fill-rule="evenodd" d="M4 6.14c0-.35.29-.64.64-.64h14.69c.36 0 .65.29.65.64 0 .36-.29.65-.65.65H4.64c-.35 0-.64-.29-.64-.65m0 7.81c0-.36.29-.65.64-.65h6.74c.36 0 .65.29.65.65 0 .35-.29.65-.65.65H4.64c-.35 0-.64-.3-.64-.65m.64-4.56a.655.655 0 0 0 0 1.31h6.74a.655.655 0 0 0 0-1.31zM4 17.85c0-.36.29-.65.64-.65h14.69c.36 0 .65.29.65.65 0 .35-.29.65-.65.65H4.64c-.35 0-.64-.3-.64-.65m15.79-5.41c.13-.12.21-.3.21-.48a.72.72 0 0 0-.22-.48l-2.23-1.96a.64.64 0 0 0-.91.06c-.24.27-.21.68.05.91l1.69 1.49-1.7 1.58a.65.65 0 0 0-.03.92c.24.26.65.28.92.03z"/></svg>
